chrome/img/svgs/paperclip-icon.svg

<?xml version="1.0" encoding="UTF-8"?>
<svg width="18px" height="19px" viewBox="0 0 31 78" version="1.1" xmlns="http://www.w3.org/2000/svg" xmlns:xlink="http://www.w3.org/1999/xlink">
    <!-- Generator: Sketch 42 (36781) - http://www.bohemiancoding.com/sketch -->
    <title>Shape</title>
    <desc>Created with Sketch.</desc>
    <defs></defs>
    <g id="Icons" stroke="none" stroke-width="1" fill="none" fill-rule="evenodd">
        <path d="M26.35,32.27016 L26.35,61.62 C26.35,62.09814 26.22755,73.32 15.5,73.32 C5.0282,73.32 4.65775,62.81184 4.65,61.61298 L4.65,13.26936 C4.6562,12.3903 4.9042,4.68078 11.625,4.68078 C18.3458,4.68078 18.5938,12.3903 18.6,13.26936 L18.6,56.94 C18.6,57.67242 18.382225,60.0639 15.58525,60.0639 C12.771225,60.0639 12.4186,57.8643 12.399225,56.91816 L12.399225,32.27016 L7.749225,32.27016 L7.749225,56.94 C7.749225,60.07638 9.8363,64.74312 15.58525,64.74312 C21.209425,64.74312 23.25,60.07716 23.25,56.94 L23.25,13.26 C23.25,8.6736 20.8196,0 11.625,0 C2.429625,0 0,8.6736 0,13.26 L0,61.62 C0,67.28592 3.2395,78 15.5,78 C27.7605,78 31,67.28592 31,61.62 L31,32.27016 L26.35,32.27016 Z" id="Shape" fill="#202020" fill-rule="nonzero"></path>
    </g>
</svg>

<svg width="18" height="19" viewBox="0 0 31 78" xmlns="http://www.w3.org/2000/svg"><title>Shape</title><path d="M26.35 32.27v29.35c0 .478-.122 11.7-10.85 11.7-10.472 0-10.842-10.508-10.85-11.707V13.269c.006-.879.254-8.588 6.975-8.588 6.72 0 6.969 7.71 6.975 8.588V56.94c0 .732-.218 3.124-3.015 3.124-2.814 0-3.166-2.2-3.186-3.146V32.27H7.75v24.67c0 3.136 2.087 7.803 7.836 7.803 5.624 0 7.665-4.666 7.665-7.803V13.26C23.25 8.674 20.82 0 11.625 0S0 8.674 0 13.26v48.36C0 67.286 3.24 78 15.5 78S31 67.286 31 61.62V32.27h-4.65z" fill="#202020" fill-rule="nonzero"/></svg>
